!!!OTL: 775. Frohe Liebe.
!!!ARE: Europa, Mitteleuropa, Deutschland, Hessen, Wetterau, Bettenhausen
!!!SCT: E0775
!!!TXL: @@DE
!!!YEM: Copyright 1995, estate of Helmut Schaffrath.
**kern	**text
*ICvox	*
*M2/4	*
*k[f#]	*
*G:	*
=1	=1
!LO:TX:a:t=Heiter.	!
!LO:TX:a:t=Aus Bettenhauſen i. d. Wetterau 1892.	!
{8g	Lie-
8d	-ben,
8d	lie-
8g	-ben
=2	=2
8g	das
8e	iſt
4e}	gut,
=3	=3
{8f#	wer
8f#	es
8f#	recht
8a	ver-
=4	=4
8a	-ſte-
8b	-hen
4g}	thut.
=5	=5
{8d	Wer
8d	es
8.cc	a-
16b	-ber
=6	=6
8a	nicht
8dd	recht
4b}	kann,
=7	=7
{8g	der
8b	fang
8a	nicht
8cc	ʒu
=8	=8
8b	lie-
8a	-ben
4g}	an.
=9	=9
{8d	Wer
8d	es
8.cc	a-
16b	-ber
=10	=10
8a	nicht
8dd	recht
4b}	kann,
=11	=11
{8g	der
8b	fang
8a	nicht
8cc	ʒu
=12	=12
8b	lie-
8a	-ben
4g}	an.
==	==
!!!AGN: Abschieds - Lied, Liebe
!!!ONB: ESAC (Essen Associative Code) Database: ERK2
!!!AMT: simple duple
!!!AIN: vox
!!!EED: Helmut Schaffrath
!!!EEV: 1.0
!!!GTL: Abschieds- und Wanderlieder
!!!URL-scan: https://rosdok.uni-rostock.de/mcrviewer/recordIdentifier/rosdok_ppn745177662/iview2/phys_0582.iview2?x=144.10897380243205&y=263.29090229514986&scale=0.7029437510502773&rotation=0&layout=singlePageLayout
!!!ENC: Anna Maria Matuszewska
!!!EEV: 2024/12/17
*-	*-
